wjschne/root3b.svg

<?xml version="1.0" encoding="UTF-8"?>
<svg xmlns="http://www.w3.org/2000/svg" xmlns:xlink="http://www.w3.org/1999/xlink" width="100%" height="100%" viewBox="0 0 720 720" version="1.1">
 <g class="spin">
  <g id="spiro_1.73205080756888_1_1_1722">
    <path style=" stroke:none;fill-rule:evenodd;fill:rgb(25.490196%,41.176471%,88.235294%);fill-opacity:1;" d="M 693.332031 360 L 669.285156 360.957031 L 600.945313 367.316406 L 499.070313 382.820313 L 379.535156 408.296875 L 260.667969 441.082031 L 160.183594 475.289063 L 92.308594 502.917969 L 65.558594 515.546875 L 81.597656 506.320313 L 135.277344 471.753906 L 215.863281 412.976563 L 309.164063 336.109375 L 400.144531 251.652344 L 475.53125 172.890625 L 525.941406 113.652344 L 547.125 85.746094 L 540.222656 96.648438 L 510.980469 147.808594 L 468.132813 233.980469 L 421.394531 343.746094 L 379.394531 461.183594 L 348.058594 568.382813 L 329.675781 648.425781 L 322.863281 688.261719 L 323.375 681.003906 L 325.523438 627.15625 L 323.882813 534.644531 L 314.894531 417.507813 L 297.984375 293.605469 L 275.898438 181.644531 L 254.257813 98.101563 L 240.292969 54.570313 L 241.117188 56 L 261.863281 100.105469 L 304.121094 178.019531 L 365.007813 276.070313 L 437.175781 378.285156 L 509.757813 469.175781 L 570.15625 536.304688 L 606.332031 572.144531 L 609.199219 574.964844 L 574.613281 548.59375 L 504.566406 501.21875 L 407.308594 443.453125 L 296.308594 386.097656 L 188.203125 338.109375 L 100.085938 305.046875 L 46.582031 288.421875 L 37.257813 285.917969 L 74.855469 292.429688 L 154.636719 301.679688 L 265.050781 307.964844 L 389.554688 307.6875 L 509.332031 300.335938 L 606.363281 288.613281 L 666.414063 277.796875 L 681.296875 274.378906 L 650.101563 284.324219 L 579.164063 311.332031 L 480.796875 355.53125 L 371.046875 412.855469 L 266.882813 475.355469 L 183.355469 532.425781 L 131.207031 572.691406 L 115.382813 586.273438 L 134.585938 566.921875 L 182.039063 513.652344 L 247.105469 431.414063 L 317.535156 330.722656 L 381.800781 226.191406 L 431.132813 134.203125 L 460.824219 70.132813 L 470.617188 45.621094 L 464.191406 66.371094 L 447.8125 130.960938 L 428.589844 230.808594 L 412.664063 351.445313 L 403.75 474.8125 L 402.34375 582.191406 L 405.753906 657.316406 L 408.949219 689.042969 L 406.019531 673.164063 L 391.875 613.019531 L 363.867188 518.804688 L 322.875 405.761719 L 273.625 291.507813 L 224.117188 193.082031 L 184.230469 124.15625 L 163.761719 92.957031 L 170.296875 101.21875 L 207.351563 144.289063 L 273.144531 212.394531 L 360.394531 292.671875 L 457.136719 371.65625 L 548.523438 437.679688 L 619.304688 482.742188 L 656.53125 503.578125 L 652.007813 501.691406 L 603.988281 482.460938 L 517.792969 453.5625 L 405.214844 423.050781 L 282.738281 397.511719 L 168.894531 380.714844 L 81.226563 373 L 33.324219 371.535156 L 32.566406 371.320313 L 78.878906 366.734375 L 164.765625 353.25 L 276.621094 328.886719 L 397.046875 295.101563 L 507.796875 256.839844 L 592.773438 221.765625 L 640.601563 198.71875 L 646.289063 195.792969 L 611.75 218.347656 L 545.09375 267.453125 L 458.90625 339.105469 L 367.828125 424.410156 L 285.90625 510.769531 L 224.261719 583.929688 L 189.429688 630.488281 L 182.648438 640.417969 L 200.242188 609.144531 L 234.84375 538.710938 L 277.273438 437.808594 L 318.59375 320.636719 L 351.929688 204.679688 L 373.675781 107.882813 L 383.910156 45.636719 L 385.902344 28.117188 L 384.925781 58.542969 L 386.601563 132.523438 L 395.234375 238.785156 L 412.472656 361.027344 L 436.617188 480.640625 L 462.800781 579.785156 L 483.925781 644.3125 L 492.292969 665.949219 L 481.476563 643.484375 L 448.101563 582.667969 L 393.078125 494.949219 L 322.035156 395.269531 L 244.757813 299.378906 L 173.710938 221.148438 L 121.875 170.367188 L 100.296875 151.414063 L 115.835938 162.992188 L 169.535156 198.910156 L 255.980469 249.722656 L 363.820313 304.839844 L 477.402344 354.660156 L 579.246094 392.335938 L 652.988281 414.8125 L 686.191406 422.945313 L 672.574219 420.804688 L 613.230469 414.242188 L 516.566406 409.1875 L 397.003906 409.980469 L 272.625 418.167969 L 162.207031 432.023438 L 82.113281 446.878906 L 43.667969 456.277344 L 51.375 453.59375 L 102.371094 433.855469 L 187.136719 395.296875 L 291.292969 340.304688 L 398.203125 275.511719 L 491.832031 210.914063 L 559.363281 158.214844 L 593.128906 128.628906 L 591.519531 130.578125 L 558.773438 167.765625 L 503.71875 238.023438 L 437.792969 333.171875 L 372.730469 440.054688 L 318.375 542.519531 L 281.074219 624.078125 L 262.875 670.773438 L 261.699219 673.683594 L 272.332031 630.660156 L 288.046875 546.910156 L 302.398438 434.324219 L 310.851563 309.625 L 311.867188 191.640625 L 307.171875 98.230469 L 301.222656 43.3125 L 299.960938 34.632813 L 309.136719 72.535156 L 332.585938 150.058594 L 370.894531 254.238281 L 420.71875 368.433594 L 475.007813 475.167969 L 524.089844 559.050781 L 557.472656 609.199219 L 566 620.792969 L 543.90625 595.484375 L 490.414063 540.644531 L 410.398438 467.6875 L 314.046875 389.726563 L 215.433594 319.15625 L 130.285156 265.507813 L 73.257813 234.050781 L 55.289063 225.304688 L 81.480469 235.546875 L 149.921875 258.113281 L 251.722656 285.210938 L 372.28125 309.796875 L 493.582031 327.140625 L 597.113281 335.761719 L 666.976563 337.492188 L 692.5 336.757813 L 670.035156 339.203125 L 603.527344 349.988281 L 503.773438 372.191406 L 386.5625 405.636719 L 269.964844 446.5 L 171.3125 487.753906 L 104.382813 520.460938 L 77.292969 535.59375 L 91.425781 526.109375 L 141.59375 488.746094 L 217.304688 425.21875 L 304.878906 342.464844 L 390.039063 251.894531 L 460.371094 167.636719 L 507.332031 104.167969 L 527.351563 73.683594 L 521.941406 83.734375 L 496.820313 135.574219 L 460.296875 223.5625 L 421.269531 335.816406 L 387.3125 455.941406 L 363.183594 565.671875 L 350.105469 647.890625 L 345.878906 689.507813 L 345.84375 683.722656 L 344.363281 631.210938 L 336.527344 540.03125 L 319.683594 424.296875 L 294.386719 301.785156 L 264.59375 191 L 236.988281 108.09375 L 219.578125 64.320313 L 219.855469 64.339844 L 242.882813 105.722656 L 289.765625 179.6875 L 356.824219 272.902344 L 435.753906 369.960938 L 514.707031 456.113281 L 580.265625 519.703125 L 619.828125 553.890625 L 624.070313 557.414063 L 588.945313 534.234375 L 516.800781 492.285156 L 416.425781 441.546875 L 301.867188 391.902344 L 190.304688 351.199219 L 99.207031 323.917969 L 43.394531 310.660156 L 32.453125 308.542969 L 68.984375 312.332031 L 148.058594 316.085938 L 257.933594 314.863281 L 381.976563 306.144531 L 501.386719 290.621094 L 598.3125 272.160156 L 658.753906 256.972656 L 674.78125 252.097656 L 645.683594 263.613281 L 577.832031 294.882813 L 483.371094 345.300781 L 377.960938 409.824219 L 277.992188 479.457031 L 197.847656 542.609375 L 147.609375 587.167969 L 131.699219 602.835938 L 148.582031 583.324219 L 191.546875 527.929688 L 250.410156 442.140625 L 313.6875 337.148438 L 370.839844 228.242188 L 414.148438 132.371094 L 439.855469 65.28125 L 448.402344 38.765625 L 443.753906 58.472656 L 432.027344 122.773438 L 419.738281 222.824219 L 412.066406 343.910156 L 411.550781 467.8125 L 417.480469 575.796875 L 426.121094 651.699219 L 431.71875 684.5625 L 428.066406 670.363281 L 410.25 612.566406 L 376.230469 521.347656 L 327.828125 411.738281 L 270.863281 300.957031 L 214.429688 205.515625 L 169.308594 138.507813 L 145.902344 107.636719 L 152.007813 114.308594 L 190.960938 153.808594 L 260.5 216.625 L 352.621094 290.488281 L 454.570313 362.769531 L 550.773438 422.773438 L 625.421875 463.453125 L 665.25 482.308594 L 662 481.28125 L 614.082031 465.78125 L 527.125 443.066406 L 413.277344 420.378906 L 289.332031 403.214844 L 174.035156 394.140625 L 84.984375 392.382813 L 35.714844 394.230469 L 33.457031 394.21875 L 77.972656 386.722656 L 161.691406 367.675781 L 271.042969 335.945313 L 388.851563 294.074219 L 497.222656 248.175781 L 580.527344 206.964844 L 627.851563 180.050781 L 634.578125 175.925781 L 602.78125 199.925781 L 540.476563 252.71875 L 459.84375 329.59375 L 374.847656 420.796875 L 298.691406 512.871094 L 241.59375 590.820313 L 209.289063 640.75 L 202.472656 652.417969 L 217.273438 621.316406 L 246.566406 549.777344 L 281.808594 446.921875 L 315.027344 327.390625 L 340.488281 209.058594 L 355.75 110.117188 L 361.851563 46.03125 L 362.699219 26.941406 L 363.746094 55.90625 L 370.335938 128.394531 L 386.050781 233.039063 L 411.496094 353.582031 L 443.792969 471.589844 L 476.921875 569.539063 L 502.851563 633.640625 L 513.304688 655.984375 L 501.703125 635.589844 L 464.945313 578.234375 L 404.589844 495.140625 L 327.144531 400.761719 L 243.363281 310.152344 L 166.59375 236.378906 L 110.503906 188.449219 L 86.523438 170.132813 L 101.578125 179.808594 L 156.480469 211.351563 L 245.367188 255.773438 L 356.351563 303.289063 L 473.226563 345.34375 L 578.101563 376.226563 L 654.34375 393.902344 L 689.441406 400 L 677.195313 398.945313 L 618.859375 396.488281 L 523.03125 397.996094 L 404.246094 406.875 L 280.589844 423.507813 L 170.703125 444.957031 L 90.710938 465.5 L 51.640625 477.925781 L 57.757813 475.269531 L 106.070313 452.679688 L 187.132813 408.929688 L 286.875 347.265625 L 389.1875 275.328125 L 478.695313 204.136719 L 543.300781 146.25 L 575.957031 113.445313 L 575.46875 114.371094 L 546.164063 152.609375 L 496.601563 225.570313 L 437.589844 324.480469 L 379.941406 435.523438 L 332.445313 541.945313 L 300.402344 626.824219 L 285.011719 675.953125 L 283.679688 680.390625 L 291.117188 638.125 L 300.976563 554.59375 L 307.609375 441.933594 L 307.578125 317.027344 L 300.550781 198.757813 L 289.402344 104.898438 L 279.5 49.199219 L 277.296875 39.171875 L 288.605469 75 L 316.863281 149.679688 L 361.871094 250.378906 L 419.269531 360.796875 L 480.898438 463.964844 L 536.089844 545.089844 L 573.601563 593.890625 L 583.875 606 L 561.128906 583.277344 L 504.921875 532.996094 L 420.730469 466.109375 L 319.480469 394.996094 L 215.996094 331.09375 L 126.625 282.933594 L 66.433594 254.886719 L 46.539063 246.84375 L 71.976563 254.832031 L 140.601563 272.394531 L 243.207031 292.359375 L 364.878906 308.664063 L 487.367188 317.753906 L 592.074219 319.332031 L 663.128906 316.257813 L 690 313.640625 L 669.207031 317.359375 L 604.820313 332.355469 L 507.640625 361.035156 L 393.300781 402.246094 L 279.535156 451.019531 L 183.222656 499.226563 L 117.632813 537 L 90.425781 554.738281 L 102.695313 545.210938 L 149.21875 505.367188 L 219.773438 437.484375 L 301.246094 349.277344 L 380.160156 253.007813 L 445.027344 163.59375 L 488.1875 96.109375 L 506.785156 63.085938 L 502.714844 72.136719 L 481.675781 124.324219 L 451.523438 213.664063 L 420.335938 327.847656 L 394.597656 450.097656 L 377.882813 561.855469 L 370.316406 645.878906 L 368.886719 689.09375 L 368.507813 684.820313 L 363.589844 633.886719 L 349.734375 544.46875 L 325.183594 430.671875 L 291.621094 310.136719 L 254.179688 201.070313 L 220.601563 119.25 L 199.65625 75.511719 L 199.203125 74.207031 L 224.238281 112.761719 L 275.398438 182.503906 L 348.25 270.484375 L 433.558594 361.929688 L 518.5625 442.882813 L 589.066406 502.53125 L 631.945313 534.765625 L 637.667969 538.808594 L 602.277344 518.769531 L 528.457031 482.320313 L 425.476563 438.773438 L 307.914063 397.058594 L 193.398438 363.894531 L 99.714844 342.652344 L 41.824219 333.003906 L 29.28125 331.480469 L 64.554688 332.722656 L 142.53125 331.117188 L 251.351563 322.492188 L 374.339844 305.394531 L 492.8125 281.71875 L 589.144531 256.488281 L 649.644531 236.828125 L 666.683594 230.328125 L 639.75 243.179688 L 575.238281 278.40625 L 485.082031 334.707031 L 384.496094 406.101563 L 289.226563 482.570313 L 212.917969 551.597656 L 164.941406 600.363281 L 149.171875 618.1875 L 163.792969 598.742188 L 202.199219 541.585938 L 254.675781 452.71875 L 310.535156 343.949219 L 360.269531 231.167969 L 397.246094 131.824219 L 418.691406 61.976563 L 425.757813 33.523438 L 422.714844 52.046875 L 415.53125 115.71875 L 410.117188 215.480469 L 410.683594 336.433594 Z M 693.332031 360 "/>
  </g>
  </g>
</svg>

<?xml version="1.0" encoding="UTF-8"?>
<svg version="1.1" viewBox="0 0 720 720" xmlns="http://www.w3.org/2000/svg">
 <g class="spin">
  <g id="spiro_1.73205080756888_1_1_1722">
   <path d="m693.33 360-24.047 0.95703-68.34 6.3594-101.88 15.504-119.54 25.477-118.87 32.785-100.48 34.207-67.875 27.629-26.75 12.629 16.039-9.2266 53.68-34.566 80.586-58.777 93.301-76.867 90.98-84.457 75.387-78.762 50.41-59.238 21.184-27.906-6.9023 10.902-29.242 51.16-42.848 86.172-46.738 109.77-42 117.44-31.336 107.2-18.383 80.043-6.8125 39.836 0.51172-7.2578 2.1484-53.848-1.6406-92.512-8.9883-117.14-16.91-123.9-22.086-111.96-21.641-83.543-13.965-43.531 0.82422 1.4297 20.746 44.105 42.258 77.914 60.887 98.051 72.168 102.21 72.582 90.891 60.398 67.129 36.176 35.84 2.8672 2.8203-34.586-26.371-70.047-47.375-97.258-57.766-111-57.355-108.11-47.988-88.117-33.062-53.504-16.625-9.3242-2.5039 37.598 6.5117 79.781 9.25 110.41 6.2852 124.5-0.27734 119.78-7.3516 97.031-11.723 60.051-10.816 14.883-3.418-31.195 9.9453-70.938 27.008-98.367 44.199-109.75 57.324-104.16 62.5-83.527 57.07-52.148 40.266-15.824 13.582 19.203-19.352 47.453-53.27 65.066-82.238 70.43-100.69 64.266-104.53 49.332-91.988 29.691-64.07 9.793-24.512-6.4258 20.75-16.379 64.59-19.223 99.848-15.926 120.64-8.9141 123.37-1.4062 107.38 3.4102 75.125 3.1953 31.727-2.9297-15.879-14.145-60.145-28.008-94.215-40.992-113.04-49.25-114.25-49.508-98.426-39.887-68.926-20.469-31.199 6.5352 8.2617 37.055 43.07 65.793 68.105 87.25 80.277 96.742 78.984 91.387 66.023 70.781 45.062 37.227 20.836-4.5234-1.8867-48.02-19.23-86.195-28.898-112.58-30.512-122.48-25.539-113.84-16.797-87.668-7.7148-47.902-1.4648-0.75781-0.21484 46.312-4.5859 85.887-13.484 111.86-24.363 120.43-33.785 110.75-38.262 84.977-35.074 47.828-23.047 5.6875-2.9258-34.539 22.555-66.656 49.105-86.188 71.652-91.078 85.305-81.922 86.359-61.645 73.16-34.832 46.559-6.7812 9.9297 17.594-31.273 34.602-70.434 42.43-100.9 41.32-117.17 33.336-115.96 21.746-96.797 10.234-62.246 1.9922-17.52-0.97656 30.426 1.6758 73.98 8.6328 106.26 17.238 122.24 24.145 119.61 26.184 99.145 21.125 64.527 8.3672 21.637-10.816-22.465-33.375-60.816-55.023-87.719-71.043-99.68-77.277-95.891-71.047-78.23-51.836-50.781-21.578-18.953 15.539 11.578 53.699 35.918 86.445 50.812 107.84 55.117 113.58 49.82 101.84 37.676 73.742 22.477 33.203 8.1328-13.617-2.1406-59.344-6.5625-96.664-5.0547-119.56 0.79297-124.38 8.1875-110.42 13.855-80.094 14.855-38.445 9.3984 7.707-2.6836 50.996-19.738 84.766-38.559 104.16-54.992 106.91-64.793 93.629-64.598 67.531-52.699 33.766-29.586-1.6094 1.9492-32.746 37.188-55.055 70.258-65.926 95.148-65.062 106.88-54.355 102.46-37.301 81.559-18.199 46.695-1.1758 2.9102 10.633-43.023 15.715-83.75 14.352-112.59 8.4531-124.7 1.0156-117.98-4.6953-93.41-5.9492-54.918-1.2617-8.6797 9.1758 37.902 23.449 77.523 38.309 104.18 49.824 114.2 54.289 106.73 49.082 83.883 33.383 50.148 8.5273 11.594-22.094-25.309-53.492-54.84-80.016-72.957-96.352-77.961-98.613-70.57-85.148-53.648-57.027-31.457-17.969-8.7461 26.191 10.242 68.441 22.566 101.8 27.098 120.56 24.586 121.3 17.344 103.53 8.6211 69.863 1.7305 25.523-0.73438-22.465 2.4453-66.508 10.785-99.754 22.203-117.21 33.445-116.6 40.863-98.652 41.254-66.93 32.707-27.09 15.133 14.133-9.4844 50.168-37.363 75.711-63.527 87.574-82.754 85.16-90.57 70.332-84.258 46.961-63.469 20.02-30.484-5.4102 10.051-25.121 51.84-36.523 87.988-39.027 112.25-33.957 120.12-24.129 109.73-13.078 82.219-4.2266 41.617-0.035156-5.7852-1.4805-52.512-7.8359-91.18-16.844-115.73-25.297-122.51-29.793-110.79-27.605-82.906-17.41-43.773 0.27734 0.019531 23.027 41.383 46.883 73.965 67.059 93.215 78.93 97.059 78.953 86.152 65.559 63.59 39.562 34.188 4.2422 3.5234-35.125-23.18-72.145-41.949-100.38-50.738-114.56-49.645-111.56-40.703-91.098-27.281-55.812-13.258-10.941-2.1172 36.531 3.7891 79.074 3.7539 109.88-1.2227 124.04-8.7188 119.41-15.523 96.926-18.461 60.441-15.188 16.027-4.875-29.098 11.516-67.852 31.27-94.461 50.418-105.41 64.523-99.969 69.633-80.145 63.152-50.238 44.559-15.91 15.668 16.883-19.512 42.965-55.395 58.863-85.789 63.277-104.99 57.152-108.91 43.309-95.871 25.707-67.09 8.5469-26.516-4.6484 19.707-11.727 64.301-12.289 100.05-7.6719 121.09-0.51562 123.9 5.9297 107.98 8.6406 75.902 5.5977 32.863-3.6523-14.199-17.816-57.797-34.02-91.219-48.402-109.61-56.965-110.78-56.434-95.441-45.121-67.008-23.406-30.871 6.1055 6.6719 38.953 39.5 69.539 62.816 92.121 73.863 101.95 72.281 96.203 60.004 74.648 40.68 39.828 18.855-3.25-1.0273-47.918-15.5-86.957-22.715-113.85-22.688-123.95-17.164-115.3-9.0742-89.051-1.7578-49.27 1.8477-2.2578-0.011719 44.516-7.4961 83.719-19.047 109.35-31.73 117.81-41.871 108.37-45.898 83.305-41.211 47.324-26.914 6.7266-4.125-31.797 24-62.305 52.793-80.633 76.875-84.996 91.203-76.156 92.074-57.098 77.949-32.305 49.93-6.8164 11.668 14.801-31.102 29.293-71.539 35.242-102.86 33.219-119.53 25.461-118.33 15.262-98.941 6.1016-64.086 0.84766-19.09 1.0469 28.965 6.5898 72.488 15.715 104.64 25.445 120.54 32.297 118.01 33.129 97.949 25.93 64.102 10.453 22.344-11.602-20.395-36.758-57.355-60.355-83.094-77.445-94.379-83.781-90.609-76.77-73.773-56.09-47.93-23.98-18.316 15.055 9.6758 54.902 31.543 88.887 44.422 110.98 47.516 116.88 42.055 104.88 30.883 76.242 17.676 35.098 6.0977-12.246-1.0547-58.336-2.457-95.828 1.5078-118.79 8.8789-123.66 16.633-109.89 21.449-79.992 20.543-39.07 12.426 6.1172-2.6562 48.312-22.59 81.062-43.75 99.742-61.664 102.31-71.938 89.508-71.191 64.605-57.887 32.656-32.805-0.48828 0.92578-29.305 38.238-49.562 72.961-59.012 98.91-57.648 111.04-47.496 106.42-32.043 84.879-15.391 49.129-1.332 4.4375 7.4375-42.266 9.8594-83.531 6.6328-112.66-0.03125-124.91-7.0273-118.27-11.148-93.859-9.9023-55.699-2.2031-10.027 11.309 35.828 28.258 74.68 45.008 100.7 57.398 110.42 61.629 103.17 55.191 81.125 37.512 48.801 10.273 12.109-22.746-22.723-56.207-50.281-84.191-66.887-101.25-71.113-103.48-63.902-89.371-48.16-60.191-28.047-19.895-8.043 25.438 7.9883 68.625 17.562 102.61 19.965 121.67 16.305 122.49 9.0898 104.71 1.5781 71.055-3.0742 26.871-2.6172-20.793 3.7188-64.387 14.996-97.18 28.68-114.34 41.211-113.77 48.773-96.312 48.207-65.59 37.773-27.207 17.738 12.27-9.5273 46.523-39.844 70.555-67.883 81.473-88.207 78.914-96.27 64.867-89.414 43.16-67.484 18.598-33.023-4.0703 9.0508-21.039 52.188-30.152 89.34-31.188 114.18-25.738 122.25-16.715 111.76-7.5664 84.023-1.4297 43.215-0.37891-4.2734-4.918-50.934-13.855-89.418-24.551-113.8-33.562-120.54-37.441-109.07-33.578-81.82-20.945-43.738-0.45312-1.3047 25.035 38.555 51.16 69.742 72.852 87.98 85.309 91.445 85.004 80.953 70.504 59.648 42.879 32.234 5.7227 4.043-35.391-20.039-73.82-36.449-102.98-43.547-117.56-41.715-114.52-33.164-93.684-21.242-57.891-9.6484-12.543-1.5234 35.273 1.2422 77.977-1.6055 108.82-8.625 122.99-17.098 118.47-23.676 96.332-25.23 60.5-19.66 17.039-6.5-26.934 12.852-64.512 35.227-90.156 56.301-100.59 71.395-95.27 76.469-76.309 69.027-47.977 48.766-15.77 17.824 14.621-19.445 38.406-57.156 52.477-88.867 55.859-108.77 49.734-112.78 36.977-99.344 21.445-69.848 7.0664-28.453-3.043 18.523-7.1836 63.672-5.4141 99.762 0.56641 120.95z" fill="#4069e0" fill-rule="evenodd"/>
  </g>
 </g>
</svg>
